X:901
T:Reel 901
M:4/4
K:Dmaj
L:1/8
FE|D2DF AFDF|AFdF AFEF|DFAB AFdF|EGFD EDCE|D2DF AFAB|AFdF AFdF|G2BG F2AF|EDEF D2|A2|d2dc dfed|BABc dAFA|d2dc d2Ad|Bdef e2de|fddc dcBA|BdBc dcdA|BAGF EFdB|AFDF D2|
